X:13
T:Oyster Girl
M:6/8
L:1/8
Z:abc2nwc
K:G
B2c|ded B2G|A2F DEF|G2G BAB|d2c ABc|
ded Bdg|f2e c2e|d2B cBA|G3:|
G2A|Bcd Bcd|e2c e2c|ABc ABc|d2B d2B|
G2G GFG|A2A A2G|F3E3|D3-D3|
Bcd Bcd|e2c e2c|ABc ABc|d2B d2B|
ded Bdg|f2e c2e|d2B cBA|G3|]
